X:1
T:Title
%%score { 1 | 2 }
L:1/8
M:6/8
K:C
V:1 treble nm="Grand Piano"
V:2 bass 
V:1
 z3 z2[Q:1/4=78] [CE]/[DF]/ | [EG][EG][FA] [EG][CE][DF] | [EG][Ec][FA] [EG]2 [CE] | %3
 [DF][^CE][DF] [B,D][=CE][DF] | [B,FA][CEG][G,DF] [G,CE]2 [CE]/[DF]/ | [EG][EG][FA] [EG][CE][DF] | %6
 [EG][Ge][Gd] [Gc]2 G | A[Ac][FA] [EG][Ec][Ge] |[M:5/8] dAB [Ec]2 |[M:1/8] [EG]/>[EG]/ | %10
[M:3/4] [EG][EG] [EG][EG] [EG]2 | [DFB]3 [Ec]2 [EG] | AA A [^Fd]2 [Fe] |[M:5/8] d-d- d3 | %14
[M:1/8] G/>G/ |[M:3/4] [EGc][EGc] [EGc][EGc] [EGc]2 | [Ae]3 .[Af]3 | ed cd/A/- AB | %18
[M:5/8] [Ec]-[Ec]- [Ec]3 |] %19
V:2
 z3 z2 [C,G,] | [C,G,][C,C][C,C] [C,C][C,G,][C,G,] | [D,G,][C,G,][C,C] [C,C]2 [C,G,] | %3
 [G,,G,][G,,G,][G,,G,] [G,,G,][G,,G,][G,,G,] | G,,A,,B,, C,2 [C,G,] | %5
 [C,G,][C,C][C,C] [C,C][C,G,][C,G,] | [C,C][C,C][D,B,] [E,C]2 [E,C] | %7
 [F,CF][F,C][F,C] [C,C][C,G,][C,C] |[M:5/8][K:treble] [G,B,F][G,B,F][G,DF][K:bass] [C,C]2 | %9
[M:1/8] [C,C]/>[C,C]/ |[M:3/4] [C,C][C,C] [C,C][C,C] [C,C]2 | G,,3 [C,C]2 [C,C] | %12
 [F,CF][F,A,F] [F,A,F] [D,A,]2 [D,C] |[M:5/8][K:treble] [G,B,G]-[G,B,G]- [G,B,G]3 | %14
[M:1/8] G,/>G,/ |[M:3/4][K:bass] C,C, C,C C2 | [A,^C]3 .[D,D]3 | %17
 [G,CG][G,B,F] [G,CE][G,B,F]/[G,B,F]/- [G,B,F][G,F] |[M:5/8][K:bass] [C,G,]-[C,G,]- [C,G,]3 |] %19

